X: 18084
T: Humours Of Ballyconnell, The
R: reel
M: 4/4
K: Dmajor
|:d2fe dBAc|BFAF EFGA|d2fe dBAF|1 BFAF DEFA:|2 BFAF D2DE||
|:EDAD BDAF|FEBE FEBE|EDAD FBAd|1 BFAF D2DE:|2 BFAF D2fg||
|:a2b^g afdf|gece gece|faaa bfag|1 fgeg fedf:|2 fgec d3||

